@stellar/design-system/src/assets/logos/trezor.svg

<svg width="18" height="24" viewBox="0 0 18 24" fill="currentColor" xmlns="http://www.w3.org/2000/svg">
<g clip-path="url(#clip0_1140_1889)">
<path d="M9.51649 0.00164795C6.12437 0.00164795 3.37918 2.66609 3.37918 5.95845V8.19102C2.188 8.40031 0.993408 8.67938 0.993408 9.04152V20.6927C0.993408 20.6927 0.993408 21.015 1.36651 21.1678C2.71857 21.6993 8.03781 23.5266 9.2598 23.9452C9.41725 24.0017 9.46175 24.0017 9.50285 24.0017C9.56105 24.0017 9.58843 24.0017 9.7459 23.9452C10.9679 23.5266 16.3008 21.6993 17.6529 21.1678C17.9986 21.0282 18.0123 20.706 18.0123 20.706V9.04154C18.0123 8.67941 16.8348 8.38705 15.6402 8.19104V5.95848C15.6573 2.66612 12.895 0.00167139 9.51659 0.00167139L9.51649 0.00164795ZM9.51649 2.84884C11.5155 2.84884 12.7238 4.0216 12.7238 5.9618V7.90201C10.4818 7.74919 8.56836 7.74919 6.31265 7.90201V5.9618C6.31265 4.01827 7.52095 2.84884 9.51652 2.84884H9.51649ZM9.5028 10.7591C12.2925 10.7591 14.6338 10.9684 14.6338 11.3439V18.6129C14.6338 18.7259 14.6201 18.7392 14.5174 18.779C14.4182 18.8222 9.75954 20.4535 9.75954 20.4535C9.75954 20.4535 9.57128 20.51 9.51649 20.51C9.4583 20.51 9.27345 20.4402 9.27345 20.4402C9.27345 20.4402 4.61484 18.809 4.51557 18.7658C4.4163 18.7226 4.3992 18.7093 4.3992 18.5997V11.3306C4.37182 10.9551 6.71311 10.7591 9.5028 10.7591Z" />
</g>
<defs>
<clipPath id="clip0_1140_1889">
<rect width="17" height="24" fill="white" transform="translate(0.992188)"/>
</clipPath>
</defs>
</svg>

<svg xmlns="http://www.w3.org/2000/svg" width="18" height="24" fill="currentColor"><g clip-path="url(#a)"><path d="M9.516.002C6.124.002 3.38 2.666 3.38 5.958v2.233c-1.191.21-2.386.488-2.386.85v11.652s0 .322.374.475c1.352.531 6.67 2.359 7.893 2.777.157.057.202.057.243.057.058 0 .085 0 .243-.057 1.222-.418 6.555-2.246 7.907-2.777a.556.556 0 0 0 .36-.462V9.042c0-.363-1.178-.655-2.373-.851V5.958C15.657 2.666 12.895.002 9.517.002Zm0 2.847c2 0 3.208 1.173 3.208 3.113v1.94a44.887 44.887 0 0 0-6.411 0v-1.94c0-1.944 1.208-3.113 3.204-3.113Zm-.013 7.91c2.79 0 5.13.21 5.13.585v7.269c0 .113-.013.126-.116.166-.099.043-4.757 1.674-4.757 1.674s-.189.057-.244.057c-.058 0-.243-.07-.243-.07s-4.658-1.631-4.757-1.674c-.1-.043-.117-.057-.117-.166v-7.27c-.027-.375 2.314-.57 5.104-.57Z"/></g><defs><clipPath id="a"><path d="M.992 0h17v24h-17z"/></clipPath></defs></svg>
